blockchains/digixdao/logo.svg

<svg fill="none" height="250" viewBox="0 0 250 250" width="250" xmlns="http://www.w3.org/2000/svg" xmlns:xlink="http://www.w3.org/1999/xlink"><clipPath id="a"><path d="m0 0h250v250h-250z"/></clipPath><g clip-path="url(#a)"><path d="m125 250c69.036 0 125-55.964 125-125 0-69.0356-55.964-125-125-125-69.0356 0-125 55.9644-125 125 0 69.036 55.9644 125 125 125z" fill="#f4d029"/><path clip-rule="evenodd" d="m97.6562 85.9375v23.4375h-54.6874v-23.4375zm7.8128 0h15.625v78.1245h-78.1252v-46.874h62.5002zm-46.8752 46.8745v15.626h46.8752v-15.626zm148.4372-31.25h-62.5v46.876h46.875v-15.626h-31.25v-15.624h46.875v46.874h-78.125v-78.1245h78.125z" fill="#fff" fill-rule="evenodd"/></g></svg>

<svg width="250" height="250" viewBox="0 0 250 250" fill="none" xmlns="http://www.w3.org/2000/svg">
<g clip-path="url(#clip0_6_48)">
<path d="M125 250C194.036 250 250 194.036 250 125C250 55.9644 194.036 0 125 0C55.9644 0 0 55.9644 0 125C0 194.036 55.9644 250 125 250Z" fill="#F4D029"/>
<path fill-rule="evenodd" clip-rule="evenodd" d="M97.6562 85.9375V109.375H42.9688V85.9375H97.6562ZM105.469 85.9375H121.094V164.062H42.9688V117.188H105.469V85.9375ZM58.5938 132.812V148.438H105.469V132.812H58.5938ZM207.031 101.562H144.531V148.438H191.406V132.812H160.156V117.188H207.031V164.062H128.906V85.9375H207.031V101.562Z" fill="white"/>
</g>
<defs>
<clipPath id="clip0_6_48">
<rect width="250" height="250" fill="white"/>
</clipPath>
</defs>
</svg>
